X:10196
%7965
T:Jig from the Water Music
% Nottingham Music Database
P:AABBCCDD
S:G F Handel, via EF
M:6/8
K:Cmaj
P:A
G,|"C"C2E "G7"D2F|"C"EFG "G7"C2D|"C"EFG "F"FGA|"G"G3 G2G|
"F"A2D "G7"DEF|"C"G2C CDE|"F"FGF "C"EDE|"G"D3 D2:|
P:B
D|"Dm"D2D D2E|
%Error : Guitar chord name not properly closed
""
